X: 245
T: Ormond Sound
M: 4/4
L: 1/8
R: reel
K: Ador
A2 ed BedB|AG (3GGG AGEG|A2 ed Bd ef|gfga gedg|
eA ~A2 BedB|AGEF G2 AG|EA ~A2 GABd|1 gedB A2 (3EFG:|2 gedB ABcd|
efge agfg|e2 ag edBd|eg fa ~g3 e|d2ge dBGB|
c2Bc d2cd|efge a2ga|bg ~g2 agab|1 gedB ABcd:|2 gedB A2 (3EFG||

